img/logo-twitter-13.svg

<svg fill="none" height="25" viewBox="0 0 25 25" width="25" xmlns="http://www.w3.org/2000/svg" xmlns:xlink="http://www.w3.org/1999/xlink"><clipPath id="a"><path d="m.773438.501953h24v24h-24z"/></clipPath><g clip-path="url(#a)"><path d="m22.3598 7.59466c.0145.21.0145.42.0145.63194 0 6.4577-4.9161 13.9055-13.90547 13.9055v-.0039c-2.65548.0039-5.25581-.7568-7.491291-2.191.386131.0465.774191.0697 1.163221.0707 2.20065.0019 4.33839-.7365 6.06968-2.0961-2.09129-.0397-3.92516-1.4033-4.5658-3.3939.73258.1413 1.48742.1122 2.20645-.0842-2.28-.4607-3.92033-2.4639-3.92033-4.79033v-.06193c.67936.37838 1.44.58836 2.21807.61156-2.14742-1.43511-2.80936-4.29189-1.51258-6.52544 2.48129 3.05323 6.14226 4.90936 10.07225 5.10581-.3939-1.69742.1442-3.47613 1.4139-4.66935 1.9684-1.85033 5.0642-1.75549 6.9145.21193 1.0945-.21581 2.1435-.61742 3.1035-1.18645-.3648 1.13129-1.1283 2.09226-2.1483 2.7029.9687-.11419 1.9151-.37355 2.8064-.76935-.6561.98322-1.4826 1.83968-2.4387 2.53161z" fill="#000"/></g></svg>

<svg width="25" height="25" viewBox="0 0 25 25" fill="none" xmlns="http://www.w3.org/2000/svg">
<g clip-path="url(#clip0_3527_3026)">
<path d="M22.3598 7.59466C22.3743 7.80466 22.3743 8.01466 22.3743 8.2266C22.3743 14.6843 17.4582 22.1321 8.46883 22.1321V22.1282C5.81335 22.1321 3.21302 21.3714 0.977539 19.9372C1.36367 19.9837 1.75173 20.0069 2.14076 20.0079C4.34141 20.0098 6.47915 19.2714 8.21044 17.9118C6.11915 17.8721 4.28528 16.5085 3.64464 14.5179C4.37722 14.6592 5.13206 14.6301 5.85109 14.4337C3.57109 13.973 1.93076 11.9698 1.93076 9.64337V9.58144C2.61012 9.95982 3.37076 10.1698 4.14883 10.193C2.00141 8.75789 1.33947 5.90111 2.63625 3.66756C5.11754 6.72079 8.77851 8.57692 12.7085 8.77337C12.3146 7.07595 12.8527 5.29724 14.1224 4.10402C16.0908 2.25369 19.1866 2.34853 21.0369 4.31595C22.1314 4.10014 23.1804 3.69853 24.1404 3.1295C23.7756 4.26079 23.0121 5.22176 21.9921 5.8324C22.9608 5.71821 23.9072 5.45885 24.7985 5.06305C24.1424 6.04627 23.3159 6.90273 22.3598 7.59466Z" fill="black"/>
</g>
<defs>
<clipPath id="clip0_3527_3026">
<rect width="24" height="24" fill="white" transform="translate(0.773438 0.501953)"/>
</clipPath>
</defs>
</svg>
